public/Img/Product/service__sync.svg

<svg width="56" height="56" viewBox="0 0 56 56" fill="none" xmlns="http://www.w3.org/2000/svg">
<g id="Icon">
<path id="Vector" fill-rule="evenodd" clip-rule="evenodd" d="M50.3996 18.1602L38.4296 5.59937L8.39961 5.6C6.85321 5.6 5.59961 6.85361 5.59961 8.4V47.6C5.59961 49.1464 6.85321 50.4 8.39961 50.4H47.5996C49.146 50.4 50.3996 49.1464 50.3996 47.6V18.1602ZM9.7998 9.79858H36.6294L46.1998 19.8408V46.1986H9.7998V9.79858Z" fill="#6B7CFF"/>
<path id="Vector_2" fill-rule="evenodd" clip-rule="evenodd" d="M43.3996 25.2H12.5996V43.4H43.3996V25.2ZM39.1992 29.4H32.1992V36.4H39.1992V29.4Z" fill="#6B7CFF"/>
<rect id="Vector_3" x="12.5996" y="14" width="16.8" height="5.6" fill="#6B7CFF"/>
</g>
</svg>

<svg width="56" height="56" fill="none" xmlns="http://www.w3.org/2000/svg"><g fill="#6B7CFF"><path fill-rule="evenodd" clip-rule="evenodd" d="M50.4 18.16 38.43 5.6H8.4a2.8 2.8 0 0 0-2.8 2.8v39.2a2.8 2.8 0 0 0 2.8 2.8h39.2a2.8 2.8 0 0 0 2.8-2.8V18.16ZM9.8 9.8h26.83L46.2 19.84v26.358H9.8v-36.4Z"/><path fill-rule="evenodd" clip-rule="evenodd" d="M43.4 25.2H12.6v18.2h30.8V25.2Zm-4.2 4.2h-7v7h7v-7Z"/><path d="M12.6 14h16.8v5.6H12.6z"/></g></svg>
